img/popular/loading.svg

<svg width="18" height="18" viewBox="0 0 18 18" fill="none" xmlns="http://www.w3.org/2000/svg">
<g clip-path="url(#clip0_321_1210)">
<path d="M9 1.80005C7.21884 1.80005 5.58169 2.45011 4.32422 3.52505C4.26119 3.57523 4.20891 3.63758 4.1705 3.7084C4.13208 3.77921 4.10832 3.85704 4.10063 3.93723C4.09294 4.01743 4.10148 4.09835 4.12574 4.17518C4.14999 4.252 4.18947 4.32316 4.24182 4.3844C4.29416 4.44564 4.3583 4.49571 4.43042 4.53163C4.50253 4.56755 4.58114 4.58858 4.66155 4.59347C4.74197 4.59835 4.82254 4.587 4.89847 4.56008C4.97441 4.53315 5.04414 4.49122 5.10352 4.43677C6.15244 3.5401 7.50996 3.00005 9 3.00005C12.1179 3.00005 14.6706 5.36281 14.9707 8.40005H13.2L15.6 12L18 8.40005H16.1695C15.8628 4.71104 12.7667 1.80005 9 1.80005ZM2.4 6.00005L0 9.60005H1.83047C2.13725 13.2891 5.2333 16.2 9 16.2C10.7812 16.2 12.4183 15.55 13.6758 14.475C13.7388 14.4249 13.7911 14.3625 13.8295 14.2917C13.8679 14.2209 13.8917 14.1431 13.8994 14.0629C13.9071 13.9827 13.8985 13.9017 13.8743 13.8249C13.85 13.7481 13.8105 13.6769 13.7582 13.6157C13.7058 13.5545 13.6417 13.5044 13.5696 13.4685C13.4975 13.4325 13.4189 13.4115 13.3385 13.4066C13.258 13.4017 13.1775 13.4131 13.1015 13.44C13.0256 13.4669 12.9559 13.5089 12.8965 13.5633C11.8476 14.46 10.49 15 9 15C5.88206 15 3.32941 12.6373 3.0293 9.60005H4.8L2.4 6.00005Z" fill="#0C62D5"/>
</g>
<defs>
<clipPath id="clip0_321_1210">
<rect width="18" height="18" fill="white"/>
</clipPath>
</defs>
</svg>

<svg xmlns="http://www.w3.org/2000/svg" width="18" height="18" fill="none"><g clip-path="url(#a)"><path fill="#0C62D5" d="M9 1.8a7.18 7.18 0 0 0-4.676 1.725.6.6 0 1 0 .78.912A5.97 5.97 0 0 1 9 3a5.99 5.99 0 0 1 5.97 5.4H13.2l2.4 3.6L18 8.4h-1.83C15.862 4.711 12.766 1.8 9 1.8M2.4 6 0 9.6h1.83c.307 3.69 3.403 6.6 7.17 6.6a7.18 7.18 0 0 0 4.676-1.725.6.6 0 1 0-.78-.912A5.97 5.97 0 0 1 9 15a5.99 5.99 0 0 1-5.97-5.4H4.8z"/></g><defs><clipPath id="a"><path fill="#fff" d="M0 0h18v18H0z"/></clipPath></defs></svg>
